scalable/actions/list-add.svg

<svg xmlns="http://www.w3.org/2000/svg" width="24" height="24">
  <path fill="#333" fill-rule="evenodd" d="M10.804688 4.1640625v6.6406255H4.1640625v2.390624h6.6406255v6.640626h2.390624v-6.640626h6.640626v-2.390624h-6.640626V4.1640625h-2.390624z" overflow="visible"/>
</svg>

<?xml version="1.0" encoding="UTF-8" standalone="no"?>
<svg
   xmlns:dc="http://purl.org/dc/elements/1.1/"
   xmlns:cc="http://creativecommons.org/ns#"
   xmlns:rdf="http://www.w3.org/1999/02/22-rdf-syntax-ns#"
   xmlns:svg="http://www.w3.org/2000/svg"
   xmlns="http://www.w3.org/2000/svg"
   xmlns:sodipodi="http://sodipodi.sourceforge.net/DTD/sodipodi-0.dtd"
   xmlns:inkscape="http://www.inkscape.org/namespaces/inkscape"
   viewBox="0 0 24 24"
   version="1.1"
   id="svg4"
   sodipodi:docname="list-add.svg"
   inkscape:version="0.92.3 (2405546, 2018-03-11)"
   width="24"
   height="24"
   style="fill:#000000">
  <metadata
     id="metadata10">
    <rdf:RDF>
      <cc:Work
         rdf:about="">
        <dc:format>image/svg+xml</dc:format>
        <dc:type
           rdf:resource="http://purl.org/dc/dcmitype/StillImage" />
        <dc:title></dc:title>
      </cc:Work>
    </rdf:RDF>
  </metadata>
  <defs
     id="defs8" />
  <sodipodi:namedview
     pagecolor="#ffffff"
     bordercolor="#666666"
     borderopacity="1"
     objecttolerance="10"
     gridtolerance="10"
     guidetolerance="10"
     inkscape:pageopacity="0"
     inkscape:pageshadow="2"
     inkscape:window-width="1366"
     inkscape:window-height="717"
     id="namedview6"
     showgrid="false"
     inkscape:zoom="22.5"
     inkscape:cx="3.1777778"
     inkscape:cy="12"
     inkscape:window-x="0"
     inkscape:window-y="25"
     inkscape:window-maximized="1"
     inkscape:current-layer="svg4"
     showguides="true"
     inkscape:guide-bbox="true" />
  <path
     style="overflow:visible;fill:#333333;fill-rule:evenodd;stroke-width:1.53397393"
     d="M 10.804688 4.1640625 L 10.804688 10.804688 L 4.1640625 10.804688 L 4.1640625 13.195312 L 10.804688 13.195312 L 10.804688 19.835938 L 13.195312 19.835938 L 13.195312 13.195312 L 19.835938 13.195312 L 19.835938 10.804688 L 13.195312 10.804688 L 13.195312 4.1640625 L 10.804688 4.1640625 z "
     id="path2" />
</svg>
